my_site/img/getintouch/location.svg

<svg width="73" height="72" viewBox="0 0 73 72" fill="none" xmlns="http://www.w3.org/2000/svg">
<path d="M29.5 42C37.4967 42 44 35.721 44 28C44 20.279 37.4967 14 29.5 14C21.5032 14 15 20.279 15 28C15 35.721 21.5032 42 29.5 42ZM29.5 21C33.4984 21 36.75 24.1395 36.75 28C36.75 31.8605 33.4984 35 29.5 35C25.5016 35 22.25 31.8605 22.25 28C22.25 24.1395 25.5016 21 29.5 21Z" fill="white"/>
<path d="M27.4338 70.3403C28.0367 70.7693 28.7591 71 29.5 71C30.2409 71 30.9633 70.7693 31.5662 70.3403C32.6492 69.577 58.103 51.2624 57.9997 28.4002C57.9997 12.7411 45.214 0 29.5 0C13.786 0 1.00031 12.7411 1.00031 28.3825C0.897002 51.2624 26.3508 69.577 27.4338 70.3403ZM29.5 7.10006C41.2882 7.10006 50.8748 16.6532 50.8748 28.418C50.9496 44.173 35.2427 58.3199 29.5 62.9598C23.7609 58.3163 8.05042 44.1659 8.12524 28.4002C8.12524 16.6532 17.7118 7.10006 29.5 7.10006Z" fill="white"/>
</svg>

<svg width="73" height="72" fill="none" xmlns="http://www.w3.org/2000/svg"><path d="M29.5 42C37.497 42 44 35.721 44 28s-6.503-14-14.5-14S15 20.279 15 28s6.503 14 14.5 14zm0-21c3.998 0 7.25 3.14 7.25 7s-3.252 7-7.25 7-7.25-3.14-7.25-7 3.252-7 7.25-7z" fill="#fff"/><path d="M27.434 70.34a3.564 3.564 0 004.132 0C32.65 69.577 58.103 51.262 58 28.4 58 12.741 45.214 0 29.5 0S1 12.741 1 28.383C.897 51.263 26.35 69.577 27.434 70.34zM29.5 7.1c11.788 0 21.375 9.553 21.375 21.318C50.95 44.173 35.243 58.32 29.5 62.96 23.76 58.316 8.05 44.166 8.125 28.4c0-11.747 9.587-21.3 21.375-21.3z" fill="#fff"/></svg>
